docs/images/icons/a1.svg

<svg width="13" height="15" viewBox="0 0 13 15" fill="none" xmlns="http://www.w3.org/2000/svg">
<g clip-path="url(#clip0_61_4)">
<path d="M12.6439 9.38135L12.9959 9.1438L13.0001 0.414824L12.6575 0.0444365L12.6523 3.62902L12.6439 9.38135Z" fill="#BDBDC0"/>
<path d="M10.7495 3.47584C10.7455 3.48015 10.7415 3.48446 10.7373 3.48902C10.7344 3.49201 10.7314 3.49521 10.7285 3.4983C10.7247 3.50232 10.721 3.50626 10.717 3.51042C10.7137 3.51381 10.7103 3.51738 10.7069 3.52088C10.7028 3.52504 10.6989 3.52917 10.6947 3.53348C10.691 3.53723 10.6871 3.54114 10.6833 3.545C10.679 3.54931 10.6748 3.55358 10.6703 3.55804C10.6662 3.56213 10.6619 3.56636 10.6577 3.5706C10.6532 3.57502 10.6487 3.57944 10.644 3.58404C10.6395 3.58842 10.6348 3.59299 10.6301 3.59752C10.6253 3.60212 10.6206 3.60665 10.6156 3.61137C10.6107 3.61612 10.6055 3.62098 10.6004 3.62584C10.5954 3.63052 10.5904 3.6352 10.5853 3.63995C10.5799 3.64496 10.5745 3.65 10.5689 3.65512C10.5636 3.65998 10.5582 3.66488 10.5528 3.66985C10.547 3.67505 10.5411 3.68031 10.5352 3.68565C10.5296 3.69066 10.5239 3.69574 10.5181 3.70086C10.5121 3.7062 10.506 3.71162 10.4997 3.71707C10.4937 3.7223 10.4876 3.7276 10.4814 3.7329C10.475 3.73846 10.4686 3.74399 10.4619 3.74962C10.4556 3.75496 10.4493 3.76034 10.4428 3.76579C10.436 3.7715 10.4292 3.77721 10.4222 3.78299C10.4155 3.78852 10.4088 3.79408 10.402 3.7996C10.3948 3.80546 10.3876 3.81131 10.3803 3.81721C10.3734 3.82277 10.3663 3.8284 10.3593 3.834C10.3516 3.84008 10.3441 3.84608 10.3362 3.85219C10.3291 3.85783 10.3217 3.8635 10.3143 3.86917C10.3064 3.87536 10.2984 3.88151 10.2903 3.8877C10.2827 3.89348 10.2749 3.89926 10.2671 3.90508C10.2589 3.9113 10.2507 3.91749 10.2422 3.92371C10.2342 3.92961 10.226 3.93554 10.2179 3.94147C10.2093 3.94773 10.2008 3.95399 10.192 3.96028C10.1836 3.96625 10.175 3.97225 10.1665 3.97822C10.1576 3.98452 10.1488 3.99082 10.1397 3.99715C10.1309 4.00323 10.1218 4.00938 10.1129 4.01549C10.1036 4.02179 10.0946 4.02805 10.0852 4.03435C10.0671 4.0465 10.0487 4.05869 10.0299 4.07088C10.0212 4.07655 10.0121 4.08226 10.0032 4.08793C9.99259 4.09475 9.98215 4.10152 9.97134 4.1083C9.96167 4.11438 9.95173 4.12042 9.94188 4.12649C9.93151 4.1329 9.9212 4.13935 9.91067 4.14572C9.90043 4.15191 9.88995 4.15809 9.87958 4.16424C9.86901 4.17058 9.8585 4.17687 9.84773 4.18314C9.83726 4.18929 9.82649 4.1954 9.81579 4.20151C9.80475 4.20785 9.79378 4.21415 9.78258 4.22048C9.77184 4.22652 9.76084 4.23252 9.74991 4.23856C9.73844 4.2449 9.72701 4.25123 9.71531 4.25753C9.70427 4.2635 9.693 4.26946 9.68177 4.27539C9.66991 4.28169 9.65804 4.28799 9.64595 4.29425C9.63448 4.30018 9.62281 4.30611 9.61115 4.312C9.59899 4.31819 9.58682 4.32434 9.5745 4.33049C9.56267 4.33638 9.55067 4.3422 9.53867 4.34805C9.52611 4.35417 9.51349 4.36025 9.50069 4.36632C9.48853 4.3721 9.47624 4.37785 9.46388 4.3836C9.45099 4.38956 9.43803 4.39556 9.42494 4.40149C9.41238 4.40717 9.39975 4.41284 9.38703 4.41847C9.37367 4.42436 9.36025 4.43022 9.34676 4.43608C9.33394 4.4416 9.32108 4.44709 9.30809 4.45258C9.30192 4.45515 9.29599 4.4578 9.28979 4.46038L9.86613 4.53931C9.93678 4.50811 10.472 4.26825 10.7733 4.03103L10.7717 3.45146C10.7666 3.45713 10.7612 3.46313 10.7554 3.46943C10.7535 3.47149 10.7514 3.47374 10.7495 3.47584Z" fill="#BDBDC0"/>
<path d="M9.18079 2.57263V4.42581C9.19083 4.42187 9.20093 4.41793 9.21084 4.41396C9.22735 4.40733 9.24375 4.4007 9.25992 4.39399C9.27653 4.38711 9.2929 4.38015 9.3092 4.37319C9.32571 4.36612 9.34218 4.35901 9.35845 4.35183C9.37362 4.34512 9.38857 4.33838 9.40348 4.33161C9.42042 4.32391 9.43729 4.31617 9.45389 4.3084C9.46748 4.30203 9.4808 4.29566 9.49415 4.28925C9.51155 4.28089 9.52888 4.2725 9.54592 4.26406C9.55782 4.25813 9.56955 4.2522 9.58128 4.24624C9.59927 4.2371 9.6172 4.22797 9.6348 4.21876C9.64481 4.21353 9.65465 4.20827 9.66456 4.203C9.68335 4.19298 9.70207 4.18293 9.72036 4.17284C9.72842 4.16842 9.73627 4.16396 9.74423 4.15951C9.76394 4.14849 9.78356 4.13744 9.80272 4.12632C9.80862 4.12293 9.81438 4.11947 9.82025 4.11608C9.84099 4.10393 9.86154 4.09178 9.88162 4.07959C9.8854 4.0773 9.88911 4.07498 9.89289 4.0727C9.91463 4.0594 9.93607 4.04611 9.95701 4.03281C9.9588 4.03171 9.96053 4.03057 9.96228 4.02946C10.5102 3.68062 10.7757 3.34029 10.7794 3.3355L10.8375 3.25956L10.8398 4.06865L10.8398 4.06869L10.8542 9.25326L12.5777 9.40698L12.5861 3.62586L12.5913 -4.86374e-05L11.1531 0.235435C10.9041 1.62679 9.37303 2.47164 9.18079 2.57263Z" fill="white"/>
<path d="M5.85168 6.30599L6.64329 9.52136L7.39248 9.50722L6.22719 4.79184L5.85168 6.30599Z" fill="#8D0F14"/>
<path d="M6.59289 9.59596L4.95937 9.62679L5.78292 6.30586L5.78299 6.30553L6.22726 4.51414L7.47901 9.57924L6.59289 9.59596ZM10.5729 13.7242L7.44123 2.0121L4.94734 1.5183L3.73032 5.50406L0.830872 15L3.71985 14.6252L4.41433 11.8248L7.15156 11.6457L7.97633 11.5917L7.98343 11.6205L8.55638 13.9388L10.5729 13.7242Z" fill="#E81C24"/>
<path d="M3.90328 2.10331L0 14.4951L0.764282 14.9889L3.70139 5.36958L4.86734 1.55102L3.90328 2.10331Z" fill="#C1171D"/>
<path d="M7.23737 11.7138L7.7733 13.8567L8.48703 13.9363L7.9266 11.6688L7.23737 11.7138Z" fill="#8D0F14"/>
</g>
<defs>
<clipPath id="clip0_61_4">
<rect width="13" height="15" fill="white"/>
</clipPath>
</defs>
</svg>

<svg width="13" height="15" fill="none" xmlns="http://www.w3.org/2000/svg"><g clip-path="url(#a)"><path d="m12.644 9.381.352-.237L13 .414l-.342-.37-.006 3.585-.008 5.752ZM10.75 3.476l-.013.013-.008.01-.012.011-.01.01-.012.013-.012.012-.013.013-.012.013-.014.013a3.96 3.96 0 0 1-.014.014l-.014.013-.016.015-.015.014-.016.015-.016.015-.018.016a3.441 3.441 0 0 1-.073.064l-.02.016-.02.017-.02.017a8.147 8.147 0 0 1-.022.017l-.02.017-.024.018a1.599 1.599 0 0 1-.046.036l-.023.017a1.794 1.794 0 0 1-.025.019l-.024.017-.026.02-.026.017-.026.02c-.01.005-.018.011-.027.017l-.028.02a4.154 4.154 0 0 1-.055.036l-.027.017c-.01.007-.02.014-.032.02l-.03.018-.03.02-.031.018-.032.02c-.01.005-.022.011-.032.018l-.033.018-.033.019-.035.019a3.862 3.862 0 0 1-.14.072l-.036.018a3.971 3.971 0 0 1-.075.036l-.04.017a5.18 5.18 0 0 1-.116.052l-.018.007.576.08c.07-.032.606-.272.907-.509l-.001-.58-.017.018-.006.007Z" fill="#BDBDC0"/><path d="M9.18 2.573v1.853l.03-.012a4.628 4.628 0 0 0 .425-.195l.03-.016.055-.03.024-.013.059-.034.017-.01.062-.036.01-.007.065-.04.005-.004c.548-.348.814-.689.817-.693l.059-.076.002.809.014 5.184 1.724.154.008-5.781L12.591 0l-1.438.235c-.249 1.392-1.78 2.237-1.972 2.338Z" fill="#fff"/><path d="m5.852 6.306.791 3.215.75-.014-1.166-4.715-.375 1.514Z" fill="#8D0F14"/><path d="m6.593 9.596-1.634.03.824-3.32.444-1.792L7.48 9.58l-.886.017Zm3.98 4.128L7.44 2.012l-2.494-.494L3.73 5.504.83 15l2.89-.375.694-2.8 2.738-.18.824-.053.007.028.573 2.319 2.017-.215Z" fill="#E81C24"/><path d="M3.903 2.103 0 14.495l.764.494 2.937-9.62 1.166-3.818-.964.552Z" fill="#C1171D"/><path d="m7.237 11.714.536 2.143.714.08-.56-2.268-.69.045Z" fill="#8D0F14"/></g><defs><clipPath id="a"><path fill="#fff" d="M0 0h13v15H0z"/></clipPath></defs></svg>
